X: 17188
T: Henry Blood's
R: reel
M: 4/4
K: Aminor
|:A2EA GEDE|GDEG AEAc|A2cA GEDE|GEED EAAc|
A2EA GEDE|GDEG AEAc|dcBG AGED|EDEG EAA2:|
|:AEED Acde|AEAc dGBd|cEED AEAc|dcBG AEAc|
AEED cEAc|dGBd e2Ac|dcBG AGED|EDEG EAA2:|

